public/primaries/PhoneRotateCounter.svg

<svg id="Layer_1" data-name="Layer 1" xmlns="http://www.w3.org/2000/svg" width="64" height="64" viewBox="0 0 64 64">
  <defs>
    <style>
      .cls-1 {
        fill-rule: evenodd;
      }
    </style>
  </defs>
  <title>Icons 300</title>
  <path class="cls-1" d="M62.9983,32.0265H58.0148A25.8486,25.8486,0,0,1,54.752,44.6342a2.0018,2.0018,0,0,1-3.4782-1.9825,21.8629,21.8629,0,0,0,2.7395-10.6252H49.0206a1.0245,1.0245,0,0,1-.8191-1.6182L55.19,20.46a.9971.9971,0,0,1,1.6382,0l6.9887,9.9483A1.0244,1.0244,0,0,1,62.9983,32.0265ZM9.2795,19.3972A2.0018,2.0018,0,0,1,12.7577,21.38a21.8634,21.8634,0,0,0-2.74,10.6251h4.9928a1.0245,1.0245,0,0,1,.819,1.6183L8.8411,43.5715a.997.997,0,0,1-1.6381,0L.2144,33.6232a1.0244,1.0244,0,0,1,.8189-1.6183H6.0167A25.8475,25.8475,0,0,1,9.2795,19.3972ZM43.64,54.8639,25.9363,56.9693a4.9659,4.9659,0,0,1-5.4949-4.3969L16.0535,14.713a5.002,5.002,0,0,1,4.34-5.5665L38.0977,7.0412a4.9658,4.9658,0,0,1,5.4951,4.3966l4.3878,37.86A5.0018,5.0018,0,0,1,43.64,54.8639Zm-3.635-39.9693a.9933.9933,0,0,0-1.099-.8793L21.2022,16.1208a1,1,0,0,0-.8679,1.1131L24.029,49.1158a.9935.9935,0,0,0,1.099.8794L42.8318,47.89A1,1,0,0,0,43.7,46.7764Z"/>
</svg>

<svg id="Layer_1" data-name="Layer 1" xmlns="http://www.w3.org/2000/svg" width="64" height="64" viewBox="0 0 64 64"><defs><style>.cls-1{fill-rule:evenodd}</style></defs><title>Icons 300</title><path class="cls-1" d="M62.998 32.026h-4.983a25.849 25.849 0 0 1-3.263 12.608 2.002 2.002 0 0 1-3.478-1.982 21.863 21.863 0 0 0 2.74-10.626H49.02a1.024 1.024 0 0 1-.82-1.618l6.989-9.948a.997.997 0 0 1 1.638 0l6.989 9.948a1.024 1.024 0 0 1-.819 1.618zM9.28 19.398a2.002 2.002 0 0 1 3.478 1.983 21.863 21.863 0 0 0-2.74 10.625h4.992a1.024 1.024 0 0 1 .82 1.618L8.84 43.572a.997.997 0 0 1-1.638 0L.214 33.623a1.024 1.024 0 0 1 .82-1.618h4.983A25.848 25.848 0 0 1 9.28 19.397zm34.36 35.467l-17.704 2.105a4.966 4.966 0 0 1-5.495-4.397l-4.387-37.859a5.002 5.002 0 0 1 4.34-5.566L38.097 7.04a4.966 4.966 0 0 1 5.495 4.397l4.388 37.86a5.002 5.002 0 0 1-4.341 5.566zm-3.635-39.97a.993.993 0 0 0-1.099-.879l-17.704 2.106a1 1 0 0 0-.868 1.113l3.695 31.882a.994.994 0 0 0 1.099.88l17.704-2.106a1 1 0 0 0 .868-1.114z"/></svg>
